X: 33483
T: Raggle Taggle Gypsies, The
R: polka
M: 2/4
K: Dmajor
C|:D2 C2 B,3C|D2 C2 B,3B,|B3B c2 B2|A2 FE F3F|
A2 A2 B2 F^G|A^G FE3 B,C|DCDE FAFE|D2 C2 B,2 zC:|

